brandFactory_export/3.Masa/Bajada de Precio_3Masa.svg

<?xml version="1.0" encoding="UTF-8"?>
<svg width="24px" height="24px" viewBox="0 0 24 24" version="1.1" xmlns="http://www.w3.org/2000/svg" xmlns:xlink="http://www.w3.org/1999/xlink">
    <title>3.Masa/Bajada de Precio_3Masa</title>
    <g id="Symbols" stroke="none" stroke-width="1" fill="none" fill-rule="evenodd">
        <g id="3.Masa/Bajada-de-Precio_3Masa" fill="#5CB615" fill-rule="nonzero">
            <path d="M14.1142857,8.70414851e-14 C15.1394958,8.70414851e-14 15.7781513,0.638655462 15.7781513,1.66386555 L15.7781513,1.66386555 L15.7781513,14.4302521 L19.0386555,14.4302521 C19.3142857,14.4302521 19.5630252,14.5983193 19.6638655,14.8571429 C19.7647059,15.1159664 19.697479,15.4084034 19.492437,15.5966387 L19.492437,15.5966387 L10.9747899,23.4689076 C10.7193277,23.707563 10.3226891,23.707563 10.0638655,23.4689076 L10.0638655,23.4689076 L1.54285714,15.6 C1.40168067,15.4722689 1.32436975,15.2907563 1.32436975,15.102521 C1.32436975,14.7294118 1.62689076,14.4302521 1.99663866,14.4302521 L1.99663866,14.4302521 L5.25714286,14.4302521 L5.25714286,13.7781513 C3.70756303,13.6705882 2.47731092,13.1831933 1.58991597,12.3294118 C0.537815127,11.3142857 0.00672268959,9.81848739 0.00672268959,7.87563025 C0.00672268959,5.93277311 0.537815127,4.43361345 1.58991597,3.42184874 C2.47731092,2.56470588 3.70756303,2.08067227 5.25714286,1.97310924 L5.25714286,1.97310924 L5.25714286,1.66386555 C5.25714286,0.638655462 5.88907563,8.70414851e-14 6.90420168,8.70414851e-14 L6.90420168,8.70414851e-14 Z M5.92941177,3.29411765 C2.84705882,3.29411765 1.3512605,4.79327731 1.3512605,7.87563025 C1.3512605,10.9579832 2.85042017,12.4537815 5.92941177,12.4537815 C9.00840336,12.4537815 10.507563,10.9579832 10.507563,7.87563025 C10.507563,4.79327731 9.01176471,3.29411765 5.92941177,3.29411765 Z M5.92941177,3.85882353 C6.16134454,3.85882353 6.34957983,4.04705882 6.34957983,4.2789916 L6.34950761,4.62423515 C6.77704548,4.68233512 7.1721841,4.8165446 7.49579832,5.01512605 C7.74117647,5.16638655 7.77815126,5.36470588 7.77815126,5.46890756 C7.77815126,5.73445378 7.56302521,5.95294118 7.29411765,5.95294118 C7.19327731,5.94957983 7.09579832,5.92268908 7.00840336,5.87563025 L7.00168067,5.87226891 C6.78052415,5.75215804 6.56585578,5.66773206 6.34908887,5.61715097 L6.34872269,7.358 L6.39194211,7.36463405 C7.81010627,7.61383934 8.11764706,8.46488856 8.11764706,9.15294118 C8.11764706,9.72773109 7.90588235,10.2117647 7.5092437,10.5579832 C7.21175143,10.813679 6.81714975,10.9812571 6.3504305,11.0528251 L6.34957983,11.4117647 C6.34957983,11.6403361 6.16134454,11.8285714 5.92941177,11.8285714 C5.69747899,11.8285714 5.5092437,11.6403361 5.5092437,11.4084034 L5.50925203,11.0767031 C4.92347471,11.0206115 4.36099071,10.8170279 3.87226891,10.4806723 C3.71428571,10.3697479 3.63697479,10.2252101 3.63697479,10.0436975 C3.64033613,9.76806723 3.86218487,9.54957983 4.13781513,9.55294118 C4.25210084,9.55630252 4.36302521,9.58991597 4.45714286,9.65378151 C4.80741024,9.88645913 5.15953983,10.0334748 5.5093734,10.0934423 L5.50872269,8.246 L5.48035967,8.24256492 C4.08626392,7.99712792 3.78487395,7.15586408 3.78487395,6.48067227 C3.78487395,5.44529251 4.45134889,4.73903618 5.50929871,4.61212856 L5.5092437,4.2789916 C5.5092437,4.04705882 5.69747899,3.85882353 5.92941177,3.85882353 Z M6.35121297,8.37859868 L6.3504018,10.0699328 C6.83760576,9.94897051 7.12605042,9.63286292 7.12605042,9.18655462 C7.12605042,8.8626607 7.02339427,8.54609935 6.35121297,8.37859868 Z M4.77647059,6.43697479 C4.77647059,6.6363853 4.77647059,7.02215298 5.50709954,7.22041799 L5.50851904,5.59155493 C5.04444826,5.68643694 4.77647059,5.98851869 4.77647059,6.43697479 Z" id="Bajada-de-Precio_3Masa"></path>
        </g>
    </g>
</svg>

<svg width="24" height="24" viewBox="0 0 24 24" xmlns="http://www.w3.org/2000/svg"><path d="M14.114 0c1.025 0 1.664.639 1.664 1.664V14.43h3.26a.67.67 0 01.454 1.167l-8.517 7.872a.669.669 0 01-.911 0L1.543 15.6a.672.672 0 01.454-1.17h3.26v-.652c-1.55-.107-2.78-.595-3.667-1.449C.538 11.314.007 9.82.007 7.876c0-1.943.53-3.442 1.583-4.454.887-.857 2.118-1.341 3.667-1.449v-.31C5.257.64 5.89 0 6.904 0zM5.93 3.294c-3.082 0-4.578 1.5-4.578 4.582s1.5 4.578 4.578 4.578c3.08 0 4.579-1.496 4.579-4.578 0-3.083-1.496-4.582-4.579-4.582zm0 .565a.42.42 0 01.42.42v.345c.428.058.823.193 1.147.391.245.151.282.35.282.454a.484.484 0 01-.484.484.648.648 0 01-.286-.077l-.006-.004a2.6 2.6 0 00-.653-.255v1.741l.043.007c1.418.249 1.726 1.1 1.726 1.788 0 .575-.212 1.059-.609 1.405-.297.256-.692.423-1.159.495v.359a.42.42 0 01-.84-.004v-.331a3.467 3.467 0 01-1.638-.596.508.508 0 01-.235-.437.494.494 0 01.5-.491.598.598 0 01.32.1c.35.233.703.38 1.052.44V8.246l-.029-.003C4.086 7.997 3.785 7.156 3.785 6.48c0-1.036.666-1.742 1.724-1.869V4.28a.42.42 0 01.42-.42zm.422 4.52v1.69c.487-.12.775-.436.775-.882 0-.324-.103-.64-.775-.808zM4.776 6.437c0 .2 0 .585.731.783l.002-1.628c-.465.094-.733.397-.733.845z" fill="#5CB615" fill-rule="nonzero"/></svg>
